SVG_Azure_All/Key Vault Secret.svg

<?xml version="1.0" encoding="UTF-8" standalone="no"?>
<!-- Generated by Microsoft Visio, SVG Export Key Vault Secret.svg Page-1 -->

<svg
   xmlns:dc="http://purl.org/dc/elements/1.1/"
   xmlns:cc="http://creativecommons.org/ns#"
   xmlns:rdf="http://www.w3.org/1999/02/22-rdf-syntax-ns#"
   xmlns:svg="http://www.w3.org/2000/svg"
   xmlns="http://www.w3.org/2000/svg"
   xmlns:sodipodi="http://sodipodi.sourceforge.net/DTD/sodipodi-0.dtd"
   xmlns:inkscape="http://www.inkscape.org/namespaces/inkscape"
   width="0.70869952in"
   height="0.78726655in"
   viewBox="0 0 51.0265 56.683212"
   xml:space="preserve"
   class="st6"
   version="1.1"
   id="svg39"
   sodipodi:docname="Key Vault Secret.svg"
   style="font-size:12px;overflow:visible;color-interpolation-filters:sRGB;fill:none;fill-rule:evenodd;stroke-linecap:square;stroke-miterlimit:3"
   inkscape:version="0.92.5 (2060ec1f9f, 2020-04-08)"><metadata
   id="metadata45"><rdf:RDF><cc:Work
       rdf:about=""><dc:format>image/svg+xml</dc:format><dc:type
         rdf:resource="http://purl.org/dc/dcmitype/StillImage" /></cc:Work></rdf:RDF></metadata><defs
   id="defs43" /><sodipodi:namedview
   pagecolor="#ffffff"
   bordercolor="#666666"
   borderopacity="1"
   objecttolerance="10"
   gridtolerance="10"
   guidetolerance="10"
   inkscape:pageopacity="0"
   inkscape:pageshadow="2"
   inkscape:window-width="640"
   inkscape:window-height="480"
   id="namedview41"
   showgrid="false"
   inkscape:zoom="1.5950981"
   inkscape:cx="34.015643"
   inkscape:cy="28.615657"
   inkscape:window-x="0"
   inkscape:window-y="0"
   inkscape:window-maximized="0"
   inkscape:current-layer="svg39" />
	<style
   type="text/css"
   id="style2">
	<![CDATA[
		.st1 {fill:#59b4d9;fill-opacity:0.8;stroke:none;stroke-linecap:butt;stroke-width:20.2562}
		.st2 {fill:#3999c6;stroke:none;stroke-linecap:butt;stroke-width:20.2562}
		.st3 {fill:#ffffff;stroke:none;stroke-linecap:butt;stroke-width:20.2562}
		.st4 {fill:#fcd116;stroke:none;stroke-linecap:butt;stroke-width:20.2562}
		.st5 {fill:#ff8c00;fill-opacity:0.3;stroke:none;stroke-linecap:butt;stroke-width:20.2562}
		.st6 {fill:none;fill-rule:evenodd;font-size:12px;overflow:visible;stroke-linecap:square;stroke-miterlimit:3}
	]]>
	</style>

	<g
   id="g37"
   transform="translate(-20.2562,-20.261083)">
		<title
   id="title4">Page-1</title>
		<g
   id="group3632-1"
   transform="translate(20.2562,-34.0157)">
			<title
   id="title6">Key Vault Secret</title>
			<g
   id="group3633-2">
				<title
   id="title8">Sheet.3633</title>
				<g
   id="shape3634-3"
   transform="translate(8.8037,-23.9977)">
					<title
   id="title10">Sheet.3634</title>
					<path
   d="M 0,86.97 H 3.38 V 90.4 H 0 Z m 6.76,0 h 3.37 V 90.4 H 6.76 Z m 6.75,0 h 3.38 v 3.43 h -3.38 z m 6.76,0 h 3.37 V 90.4 H 20.27 Z M 0,93.82 h 3.38 v 3.43 H 0 Z m 6.76,0 h 3.37 v 3.43 H 6.76 Z m 6.75,0 h 3.38 v 3.43 h -3.38 z m 6.76,0 h 3.37 v 3.43 H 20.27 Z M 0,100.68 h 3.38 v 3.43 H 0 Z m 6.76,0 h 3.37 v 3.43 H 6.76 Z m 6.75,0 h 3.38 v 3.43 h -3.38 z m 6.76,0 h 3.37 v 3.43 H 20.27 Z M 0,107.54 h 3.38 v 3.42 H 0 Z m 6.76,0 h 3.37 v 3.42 H 6.76 Z m 6.75,0 h 3.38 v 3.42 h -3.38 z m 6.76,0 h 3.37 v 3.42 h -3.37 z"
   class="st1"
   id="path12"
   inkscape:connector-curvature="0"
   style="fill:#59b4d9;fill-opacity:0.8;stroke:none;stroke-width:20.25620079;stroke-linecap:butt" />
				</g>
				<g
   id="shape3635-5"
   transform="translate(0,-6.98334)">
					<title
   id="title15">Sheet.3635</title>
					<path
   d="m 37.67,65.08 v 42.06 H 3.77 V 65.08 Z m 3.77,-3.82 H 0 v 49.7 h 41.44 z"
   class="st2"
   id="path17"
   inkscape:connector-curvature="0"
   style="fill:#3999c6;stroke:none;stroke-width:20.25620079;stroke-linecap:butt" />
				</g>
				<g
   id="shape3636-7"
   transform="translate(29.0693,-22.2836)">
					<title
   id="title20">Sheet.3636</title>
					<path
   d="m 11.82,106.75 c 0,-3.6 -2.77,-6.53 -5.91,-6.53 -3.13,0 -5.91,2.93 -5.91,6.53 v 4.21 h 11.82 z"
   class="st3"
   id="path22"
   inkscape:connector-curvature="0"
   style="fill:#ffffff;stroke:none;stroke-width:20.25620079;stroke-linecap:butt" />
				</g>
				<g
   id="shape3637-9"
   transform="translate(18.9365)">
					<title
   id="title25">Sheet.3637</title>
					<path
   d="m 10.13,84.48 c 0,-3.59 2.78,-6.51 5.91,-6.51 3.14,0 5.91,2.92 5.91,6.51 v 4.2 h 5.07 v -4.2 c 0,-6.46 -5.34,-11.75 -10.98,-11.75 -5.64,0 -10.97,5.29 -10.97,11.75 v 4.2 h 5.06 z m 21.96,7.77 c 0,-1.97 -1.64,-3.57 -3.65,-3.57 H 3.65 C 1.63,88.68 0,90.28 0,92.25 v 14.36 c 0,1.97 1.63,4.35 3.65,4.35 h 24.79 c 2.01,0 3.65,-2.38 3.65,-4.35 z"
   class="st4"
   id="path27"
   inkscape:connector-curvature="0"
   style="fill:#fcd116;stroke:none;stroke-width:20.25620079;stroke-linecap:butt" />
				</g>
				<g
   id="shape3638-11"
   transform="translate(18.9365)">
					<title
   id="title30">Sheet.3638</title>
					<path
   d="m 10.13,84.48 c 0,-3.59 2.78,-6.51 5.91,-6.51 3.14,0 5.91,2.92 5.91,6.51 v 4.2 h 5.07 v -4.2 c 0,-6.46 -5.34,-11.75 -10.98,-11.75 -5.64,0 -10.97,5.29 -10.97,11.75 v 4.2 h 5.06 z m 21.96,7.77 c 0,-1.97 -1.64,-3.57 -3.65,-3.57 H 3.65 C 1.63,88.68 0,90.28 0,92.25 v 14.36 c 0,1.97 1.63,4.35 3.65,4.35 h 24.79 c 2.01,0 3.65,-2.38 3.65,-4.35 z"
   class="st5"
   id="path32"
   inkscape:connector-curvature="0"
   style="fill:#ff8c00;fill-opacity:0.3;stroke:none;stroke-width:20.25620079;stroke-linecap:butt" />
				</g>
			</g>
		</g>
	</g>
</svg>

<?xml version="1.0" encoding="UTF-8" standalone="no"?>
<!DOCTYPE svg PUBLIC "-//W3C//DTD SVG 1.1//EN" "http://www.w3.org/Graphics/SVG/1.1/DTD/svg11.dtd">
<!-- Generated by Microsoft Visio, SVG Export Key Vault Secret.svg Page-1 -->
<svg xmlns="http://www.w3.org/2000/svg" xmlns:xlink="http://www.w3.org/1999/xlink" xmlns:ev="http://www.w3.org/2001/xml-events"
		width="1.27133in" height="1.54118in" viewBox="0 0 91.536 110.965" xml:space="preserve" color-interpolation-filters="sRGB"
		class="st6">
	<style type="text/css">
	<![CDATA[
		.st1 {fill:#59b4d9;fill-opacity:0.8;stroke:none;stroke-linecap:butt;stroke-width:20.2562}
		.st2 {fill:#3999c6;stroke:none;stroke-linecap:butt;stroke-width:20.2562}
		.st3 {fill:#ffffff;stroke:none;stroke-linecap:butt;stroke-width:20.2562}
		.st4 {fill:#fcd116;stroke:none;stroke-linecap:butt;stroke-width:20.2562}
		.st5 {fill:#ff8c00;fill-opacity:0.3;stroke:none;stroke-linecap:butt;stroke-width:20.2562}
		.st6 {fill:none;fill-rule:evenodd;font-size:12px;overflow:visible;stroke-linecap:square;stroke-miterlimit:3}
	]]>
	</style>

	<g>
		<title>Page-1</title>
		<g id="group3548-1" transform="translate(20.2562,-34.0157)">
			<title>Key Vault Secret</title>
			<g id="group3549-2">
				<title>Sheet.3549</title>
				<g id="shape3550-3" transform="translate(8.8037,-23.9977)">
					<title>Sheet.3550</title>
					<path d="M0 86.97 L3.38 86.97 L3.38 90.4 L0 90.4 L0 86.97 ZM6.76 86.97 L10.13 86.97 L10.13 90.4 L6.76 90.4 L6.76
								 86.97 ZM13.51 86.97 L16.89 86.97 L16.89 90.4 L13.51 90.4 L13.51 86.97 ZM20.27 86.97 L23.64 86.97
								 L23.64 90.4 L20.27 90.4 L20.27 86.97 ZM0 93.82 L3.38 93.82 L3.38 97.25 L0 97.25 L0 93.82 ZM6.76
								 93.82 L10.13 93.82 L10.13 97.25 L6.76 97.25 L6.76 93.82 ZM13.51 93.82 L16.89 93.82 L16.89 97.25
								 L13.51 97.25 L13.51 93.82 ZM20.27 93.82 L23.64 93.82 L23.64 97.25 L20.27 97.25 L20.27 93.82 ZM0
								 100.68 L3.38 100.68 L3.38 104.11 L0 104.11 L0 100.68 ZM6.76 100.68 L10.13 100.68 L10.13 104.11 L6.76
								 104.11 L6.76 100.68 ZM13.51 100.68 L16.89 100.68 L16.89 104.11 L13.51 104.11 L13.51 100.68 ZM20.27
								 100.68 L23.64 100.68 L23.64 104.11 L20.27 104.11 L20.27 100.68 ZM0 107.54 L3.38 107.54 L3.38 110.96
								 L0 110.96 L0 107.54 ZM6.76 107.54 L10.13 107.54 L10.13 110.96 L6.76 110.96 L6.76 107.54 ZM13.51
								 107.54 L16.89 107.54 L16.89 110.96 L13.51 110.96 L13.51 107.54 ZM20.27 107.54 L23.64 107.54 L23.64
								 110.96 L20.27 110.96 L20.27 107.54 Z" class="st1"/>
				</g>
				<g id="shape3551-5" transform="translate(0,-6.98334)">
					<title>Sheet.3551</title>
					<path d="M37.67 65.08 L37.67 107.14 L3.77 107.14 L3.77 65.08 L37.67 65.08 ZM41.44 61.26 L0 61.26 L0 110.96 L41.44
								 110.96 L41.44 61.26 Z" class="st2"/>
				</g>
				<g id="shape3552-7" transform="translate(29.0693,-22.2836)">
					<title>Sheet.3552</title>
					<path d="M11.82 106.75 C11.82 103.15 9.05 100.22 5.91 100.22 C2.78 100.22 0 103.15 0 106.75 L0 110.96 L11.82
								 110.96 L11.82 106.75 Z" class="st3"/>
				</g>
				<g id="shape3553-9" transform="translate(18.9365,0)">
					<title>Sheet.3553</title>
					<path d="M10.13 84.48 C10.13 80.89 12.91 77.97 16.04 77.97 C19.18 77.97 21.95 80.89 21.95 84.48 L21.95 88.68
								 L27.02 88.68 L27.02 84.48 C27.02 78.02 21.68 72.73 16.04 72.73 C10.4 72.73 5.07 78.02 5.07 84.48
								 L5.07 88.68 L10.13 88.68 L10.13 84.48 ZM32.09 92.25 C32.09 90.28 30.45 88.68 28.44 88.68 L3.65 88.68
								 C1.63 88.68 0 90.28 0 92.25 L0 106.61 C0 108.58 1.63 110.96 3.65 110.96 L28.44 110.96 C30.45 110.96
								 32.09 108.58 32.09 106.61 L32.09 92.25 Z" class="st4"/>
				</g>
				<g id="shape3554-11" transform="translate(18.9365,0)">
					<title>Sheet.3554</title>
					<path d="M10.13 84.48 C10.13 80.89 12.91 77.97 16.04 77.97 C19.18 77.97 21.95 80.89 21.95 84.48 L21.95 88.68
								 L27.02 88.68 L27.02 84.48 C27.02 78.02 21.68 72.73 16.04 72.73 C10.4 72.73 5.07 78.02 5.07 84.48
								 L5.07 88.68 L10.13 88.68 L10.13 84.48 ZM32.09 92.25 C32.09 90.28 30.45 88.68 28.44 88.68 L3.65 88.68
								 C1.63 88.68 0 90.28 0 92.25 L0 106.61 C0 108.58 1.63 110.96 3.65 110.96 L28.44 110.96 C30.45 110.96
								 32.09 108.58 32.09 106.61 L32.09 92.25 Z" class="st5"/>
				</g>
			</g>
		</g>
	</g>
</svg>
